svg/openziti.svg

<svg xmlns="http://www.w3.org/2000/svg" xml:space="preserve" width="563.952" height="563.952" color-interpolation-filters="sRGB" style="fill:none;fill-rule:evenodd;font-size:12px;overflow:visible;stroke-linecap:square;stroke-miterlimit:3" viewBox="0 0 422.964 422.964"><defs><linearGradient id="a" x1="0" x2="1" y1="0" y2="0" gradientTransform="rotate(45 .5 .5)"><stop offset=".005" stop-color="#fc0147"/><stop offset=".04" stop-color="#f4044d"/><stop offset=".9" stop-color="#0068f9"/></linearGradient></defs><g transform="translate(6.06 -5.807)"><circle cx="205.65" cy="217.315" r="205.65" style="fill:#fff;fill-opacity:.75;stroke:none;stroke-linecap:butt;stroke-width:.14398"/></g><g transform="translate(109.062 -42.366)"><path d="M102.95 91.36 0 252l59.97 38.28 9.66-15.17 32.76 147.85 101.34-161.55-58.25-37.22-9.71 15.32zm48.85 159.43 25.58 16.89-66.59 104.77-32.82-148.16-24.88 38.94-25.18-16.03 67-105.03 32.51 146.9z" style="fill:#010101;stroke:none;stroke-linecap:butt;stroke-width:.14398"/></g><g transform="translate(.144 -.144)"><path d="M211.36 422.96c-28.52 0-56.23-5.56-82.27-16.58-25.18-10.62-47.73-25.89-67.2-45.26-19.36-19.36-34.64-42.02-45.25-67.2C5.56 267.88 0 240.17 0 211.65s5.56-56.23 16.59-82.27c10.61-25.18 25.88-47.73 45.25-67.2 19.37-19.37 42.02-34.64 67.2-45.26C155.13 5.85 182.79.29 211.36.29s56.23 5.56 82.27 16.58c25.18 10.62 47.74 25.89 67.2 45.26 19.37 19.37 34.64 42.02 45.26 67.2 11.02 26.04 16.59 53.75 16.59 82.27s-5.57 56.23-16.59 82.27c-10.62 25.18-25.89 47.73-45.26 67.2-19.36 19.37-42.02 34.64-67.2 45.26-26.04 11.07-53.75 16.63-82.27 16.63m0-406.24c-52.08 0-101.03 20.28-137.79 57.09-36.91 36.81-57.14 85.76-57.14 137.84s20.28 101.03 57.09 137.79c36.81 36.86 85.76 57.09 137.79 57.09s101.03-20.28 137.79-57.09c36.87-36.81 57.09-85.76 57.09-137.79S385.92 110.62 349.1 73.86c-36.76-36.91-85.7-57.14-137.74-57.14" style="fill:url(#a);stroke:none;stroke-linecap:butt;stroke-width:.14398"/></g></svg>

<?xml version="1.0" encoding="UTF-8" standalone="no"?>
<!DOCTYPE svg PUBLIC "-//W3C//DTD SVG 1.1//EN" "http://www.w3.org/Graphics/SVG/1.1/DTD/svg11.dtd">
<!-- Generated by Microsoft Visio, SVG Export ziti-v2.svg Page-1 -->
<svg xmlns="http://www.w3.org/2000/svg" xmlns:xlink="http://www.w3.org/1999/xlink" xmlns:ev="http://www.w3.org/2001/xml-events"
		width="5.8745in" height="5.8745in" viewBox="0 0 422.964 422.964" xml:space="preserve" color-interpolation-filters="sRGB"
		class="st4">
	<style type="text/css">
	<![CDATA[
		.st1 {fill:#ffffff;fill-opacity:0.75;stroke:none;stroke-linecap:butt;stroke-width:0.14398}
		.st2 {fill:#010101;stroke:none;stroke-linecap:butt;stroke-width:0.14398}
		.st3 {fill:url(#grad0-9);stroke:none;stroke-linecap:butt;stroke-width:0.14398}
		.st4 {fill:none;fill-rule:evenodd;font-size:12px;overflow:visible;stroke-linecap:square;stroke-miterlimit:3}
	]]>
	</style>

	<defs id="Patterns_And_Gradients">
		<linearGradient id="grad0-9" x1="0" y1="0" x2="1" y2="0" gradientTransform="rotate(44.999995766921 0.5 0.5)">
			<stop offset="0.005" stop-color="#fc0147" stop-opacity="1"/>
			<stop offset="0.04" stop-color="#f4044d" stop-opacity="1"/>
			<stop offset="0.9" stop-color="#0068f9" stop-opacity="1"/>
		</linearGradient>
	</defs>
	<g>
		<title>Page-1</title>
		<g id="shape12-1" transform="translate(6.06013,-5.80731)">
			<title>Sheet.12</title>
			<ellipse cx="205.65" cy="217.315" rx="205.65" ry="205.65" class="st1"/>
		</g>
		<g id="shape13-3" transform="translate(109.062,-42.3661)">
			<title>Lightning_Crashes</title>
			<path d="M102.95 91.36 L0 252 L59.97 290.28 L69.63 275.11 L102.39 422.96 L203.73 261.41 L145.48 224.19 L135.77 239.51
						 L102.95 91.36 ZM151.8 250.79 L177.38 267.68 L110.79 372.45 L77.97 224.29 L53.09 263.23 L27.91 247.2 L94.91
						 142.17 L127.42 289.07 L151.8 250.79 Z" class="st2"/>
		</g>
		<g id="group14-5" transform="translate(0.14398,-0.14398)">
			<title>Sheet.14</title>
			<g id="shape15-6">
				<title>Sheet.15</title>
				<path d="M211.36 422.96 C182.84 422.96 155.13 417.4 129.09 406.38 C103.91 395.76 81.36 380.49 61.89 361.12 C42.53
							 341.76 27.25 319.1 16.64 293.92 C5.56 267.88 0 240.17 0 211.65 C0 183.13 5.56 155.42 16.59 129.38 C27.2
							 104.2 42.47 81.65 61.84 62.18 C81.21 42.81 103.86 27.54 129.04 16.92 C155.13 5.85 182.79 0.29 211.36
							 0.29 C239.93 0.29 267.59 5.85 293.63 16.87 C318.81 27.49 341.37 42.76 360.83 62.13 C380.2 81.5 395.47
							 104.15 406.09 129.33 C417.11 155.37 422.68 183.08 422.68 211.6 C422.68 240.12 417.11 267.83 406.09 293.87
							 C395.47 319.05 380.2 341.6 360.83 361.07 C341.47 380.44 318.81 395.71 293.63 406.33 C267.59 417.4 239.88
							 422.96 211.36 422.96 ZM211.36 16.72 C159.28 16.72 110.33 37 73.57 73.81 C36.66 110.62 16.43 159.57 16.43
							 211.65 C16.43 263.73 36.71 312.68 73.52 349.44 C110.33 386.3 159.28 406.53 211.31 406.53 C263.34 406.53
							 312.34 386.25 349.1 349.44 C385.97 312.63 406.19 263.68 406.19 211.65 C406.19 159.62 385.92 110.62 349.1
							 73.86 C312.34 36.95 263.4 16.72 211.36 16.72 Z" class="st3"/>
			</g>
		</g>
	</g>
</svg>
